X:79
T:Pretty Bettsey THO3.079
O:England;London
M:6/8
L:1/8
Z:vmp. Peter Dunk 2011.from a transcription by Fynn Titford-Mock 2006-9
B:Thompson's Compleat Collection of 200 Favourite Country Dances Vol. III.1765-72
Q:3/8=100
K:F
cAc (f/g/a)c|BGF (E/F/G)C|cAE Fag|fed c3::cga bgc|afc Tg3|
Bdg gfe|dcB {B2}A3|cA_E (D/E/F)B,|dBF (_E/F/G)C|FCA, B,dc|BAG [F3A,3]:|

